docs/assets/img/sprite-icons.svg

<svg xmlns="http://www.w3.org/2000/svg" xmlns:xlink="http://www.w3.org/1999/xlink">
    
    <symbol viewBox="0 0 27 26" id="comment">
        <path d="M24.235 16.1844C24.2149 16.2143 24.1948 16.2444 24.1743 16.274C23.8887 16.6918 23.898 16.7464 23.9694 17.0365L24.9977 20.9531C25.0083 20.993 25.008 21.0349 24.997 21.0746C24.986 21.1142 24.9647 21.1503 24.9351 21.179C24.9056 21.2077 24.869 21.2281 24.829 21.2379C24.789 21.2478 24.7471 21.2468 24.7076 21.2352L20.2147 19.9364C19.989 19.8714 19.7058 19.9422 19.5247 20.0113C19.3437 20.0803 18.6438 20.3363 17.9375 20.5301C17.2313 20.7239 15.9435 21.0112 14.9878 21.0112C8.97561 21.0112 4.30053 16.2113 4.30053 10.4429C4.3011 9.72421 4.37892 9.00765 4.53266 8.30558C5.55751 3.5684 9.93198 0 15.1758 0C21.1879 0 26.0499 4.6745 26.0313 10.4371C26.029 12.4477 25.4284 14.4121 24.306 16.0802C24.2821 16.114 24.2586 16.1491 24.235 16.1844Z"/>
        <path d="M14.9658 22.3687C15.4179 22.3609 15.869 22.3212 16.3156 22.2497C16.3678 22.2416 16.4212 22.2502 16.4682 22.2743C16.5151 22.2985 16.5532 22.337 16.5768 22.3842C16.6005 22.4315 16.6085 22.485 16.5997 22.5371C16.5909 22.5891 16.5658 22.6371 16.528 22.674C14.6962 24.3964 12.2741 25.3517 9.75969 25.3434C8.45338 25.3434 7.14708 25.0579 5.96612 24.5937C5.84813 24.5423 5.72117 24.5147 5.5925 24.5126C5.46384 24.5104 5.33601 24.5336 5.21634 24.5809L1.27015 25.9876C1.23173 26.0007 1.19056 26.0035 1.15073 25.9957C1.1109 25.9879 1.07381 25.9698 1.04316 25.9432C1.01251 25.9166 0.989366 25.8824 0.976041 25.8441C0.962716 25.8057 0.959675 25.7646 0.96722 25.7247L1.78489 21.5313C1.80985 21.4187 1.7286 21.2498 1.58526 21.0311C0.441817 19.3179 -0.0945801 17.271 0.0617361 15.2172C0.218052 13.1634 1.05807 11.2212 2.44762 9.70084C2.48252 9.66264 2.52833 9.63612 2.57883 9.62487C2.62933 9.61363 2.68207 9.61821 2.72987 9.63799C2.77768 9.65777 2.81823 9.69179 2.84602 9.73544C2.87381 9.77908 2.88749 9.83022 2.88519 9.8819L2.88512 9.88362C2.87876 10.0583 2.87242 10.2324 2.87242 10.4135C2.87242 13.0818 3.69764 15.6317 5.21112 17.6379C6.03833 18.7867 7.08559 19.7596 8.29205 20.5001C10.1781 21.7187 12.5035 22.3687 14.9658 22.3687Z" />
    </symbol>

    <symbol viewBox="0 0 16 10" id="arrow">
        <path fill-rule="evenodd" clip-rule="evenodd" d="M0.29289 2.20711C-0.09763 1.81658 -0.09763 1.18342 0.29289 0.79289C0.68342 0.40237 1.31658 0.40237 1.70711 0.79289L8 7.0858L14.2929 0.79289C14.6834 0.40237 15.3166 0.40237 15.7071 0.79289C16.0976 1.18342 16.0976 1.81658 15.7071 2.20711L8.7071 9.2071C8.3166 9.5976 7.68342 9.5976 7.29289 9.2071L0.29289 2.20711Z"/>
    </symbol>

    <symbol viewBox="0 0 16 16" id="close">
        <path d="M14 1a1 1 0 0 1 1 1v12a1 1 0 0 1-1 1H2a1 1 0 0 1-1-1V2a1 1 0 0 1 1-1h12zM2 0a2 2 0 0 0-2 2v12a2 2 0 0 0 2 2h12a2 2 0 0 0 2-2V2a2 2 0 0 0-2-2H2z"/>
        <path d="M4.646 4.646a.5.5 0 0 1 .708 0L8 7.293l2.646-2.647a.5.5 0 0 1 .708.708L8.707 8l2.647 2.646a.5.5 0 0 1-.708.708L8 8.707l-2.646 2.647a.5.5 0 0 1-.708-.708L7.293 8 4.646 5.354a.5.5 0 0 1 0-.708z"/>
    </symbol>
</svg>

<svg xmlns="http://www.w3.org/2000/svg"><symbol viewBox="0 0 27 26" id="comment"><path d="M24.235 16.184l-.06.09c-.286.418-.277.472-.206.762l1.029 3.917a.232.232 0 01-.29.282l-4.493-1.299c-.226-.065-.51.006-.69.075a19.6 19.6 0 01-1.587.52c-.707.193-1.994.48-2.95.48-6.012 0-10.687-4.8-10.687-10.568 0-.719.078-1.435.232-2.137C5.558 3.568 9.932 0 15.176 0 21.188 0 26.05 4.675 26.03 10.437a10.13 10.13 0 01-1.796 5.747z"/><path d="M14.966 22.369a9.585 9.585 0 001.35-.12.25.25 0 01.26.135.249.249 0 01-.048.29 9.833 9.833 0 01-6.768 2.67c-1.307 0-2.613-.286-3.794-.75a.975.975 0 00-.75-.013L1.27 25.988a.232.232 0 01-.303-.263l.818-4.194c.025-.112-.056-.281-.2-.5a9.213 9.213 0 01.863-11.33.252.252 0 01.437.18v.003c-.006.174-.013.348-.013.53 0 2.668.826 5.218 2.34 7.224a10.683 10.683 0 003.08 2.862c1.886 1.219 4.212 1.869 6.674 1.869z"/></symbol><symbol viewBox="0 0 16 10" id="arrow"><path fill-rule="evenodd" clip-rule="evenodd" d="M.293 2.207A1 1 0 011.707.793L8 7.086 14.293.793a1 1 0 111.414 1.414l-7 7a1 1 0 01-1.414 0l-7-7z"/></symbol><symbol viewBox="0 0 16 16" id="close"><path d="M14 1a1 1 0 011 1v12a1 1 0 01-1 1H2a1 1 0 01-1-1V2a1 1 0 011-1h12zM2 0a2 2 0 00-2 2v12a2 2 0 002 2h12a2 2 0 002-2V2a2 2 0 00-2-2H2z"/><path d="M4.646 4.646a.5.5 0 01.708 0L8 7.293l2.646-2.647a.5.5 0 01.708.708L8.707 8l2.647 2.646a.5.5 0 01-.708.708L8 8.707l-2.646 2.647a.5.5 0 01-.708-.708L7.293 8 4.646 5.354a.5.5 0 010-.708z"/></symbol></svg>
